flaticon/stationery/glue.svg

<svg xmlns="http://www.w3.org/2000/svg" width="32" height="32" viewBox="0 0 24 24">
    <path d="M 22.261719 9.449219 C 21.882812 7.390625 20.46875 5.839844 18.640625 5.34375 L 18.640625 0.0664062 L 5.359375 0.0664062 L 5.359375 5.34375 C 3.53125 5.84375 2.117188 7.398438 1.734375 9.480469 L 0 23.933594 L 24 23.933594 Z M 17.625 5.171875 L 15.574219 5.171875 L 15.574219 1.082031 L 17.625 1.082031 Z M 9.441406 5.171875 L 9.441406 1.082031 L 11.492188 1.082031 L 11.492188 5.171875 Z M 12.507812 1.082031 L 14.558594 1.082031 L 14.558594 5.171875 L 12.507812 5.171875 Z M 6.375 5.171875 L 6.375 1.082031 L 8.425781 1.082031 L 8.425781 5.171875 Z M 6.636719 6.1875 L 17.363281 6.1875 C 19.261719 6.1875 20.847656 7.570312 21.242188 9.527344 L 2.757812 9.527344 C 3.167969 7.554688 4.746094 6.1875 6.636719 6.1875 Z M 2.628906 10.542969 L 21.371094 10.542969 L 22.296875 18.273438 L 1.703125 18.273438 Z M 1.144531 22.917969 L 1.578125 19.289062 L 22.417969 19.289062 L 22.855469 22.917969 Z M 1.144531 22.917969"/>
</svg>

<svg xmlns="http://www.w3.org/2000/svg" width="32" height="32" viewBox="0 0 24 24">
    <path d="M22.262 9.45c-.38-2.06-1.793-3.61-3.621-4.106V.066H5.359v5.278c-1.828.5-3.242 2.054-3.625 4.136L0 23.934h24zm-4.637-4.278h-2.05v-4.09h2.05zm-8.184 0v-4.09h2.051v4.09zm3.067-4.09h2.05v4.09h-2.05zm-6.133 4.09v-4.09h2.05v4.09zm.262 1.016h10.726c1.899 0 3.485 1.382 3.88 3.34H2.757c.41-1.973 1.988-3.34 3.879-3.34zm-4.008 4.355H21.37l.926 7.73H1.703zM1.145 22.918l.433-3.629h20.84l.437 3.629zm0 0"/>
</svg>
